X:9
T: Wo de gege dangle hongjun
N: C0010
O: China,Shaanxi, Suide, Mizhi
S: I, 45, 2)]
N: Neues Volkslied
N: Eine Verzierung auf letzter Note.
R: Shange, Xintianyou. Geming lishi minge]
M: 2/4
L: 1/16
K: F
G2FED2DD | G2Aed4- | d8 | c3Ac2AG | F2D6 |
GAF4G2 | A4d2c2 | A2F2GAF2 | D8 |
d2d2g2dc | AcAGF2D2 | d2d2g2dc | A8 |
d2d2g2dc | AcAGF2D2 | G2G2c2AG | FD3-D4 |
G2FED2DD | G2Aed4- | d8 | c3Ac2AG | F2D6 |
GAF4G2 | A4d2c2 | A2F2GAF2 | D8

@@@ Tune index: 6010
